X: 5
T: Captain Carswell
Z: chansherly212
S: https://thesession.org/tunes/3512#setting28960
R: strathspey
M: 4/4
L: 1/8
K: Ador
A2 A<G A2 B<d | e>d B<d e2 d<B | G>A B<A B2 G<B | d>e d<B e2 d<B |
A2 A<G A2 B<d | e>d B<d e2 d<B | G>A B<e d>B e>d | B2 A2 A4 :|
e>f e<d e2 a2 | g>e f>d e4 | d>B A<B d2 e>f | g>e f<d e2 d<B |
e>f e<d e2 a2 | g>e f<d e2 d<B | G>A B<e d>B e>d | B2 A2 A4 :|
A2 A<B A2 A<B | e>d B<d e2 d<B | G>A B<A B2 G<B | d>e d<B e2 d<B |
1 A2 A<B A2 A<B | e>d B<d e2 d<B | G>A B<e d>B e>d | B2 A2 A4 :|
e>A A2 a>g f<a | g>e f>d e4 | B<d B>A G2 B>d | e>d B<d e2 d>B |
e>A A2 a>g f<a | g>e f>d e2 d>B | G>A B<e d>B e>d | B2 A2 A4 |
e>A A2 a>g f<a | g>e f>d e4 | B<d B>A G2 B>d | e>d B<d e2 d>B |
A2 A<G A2 B<d | e>d B<d e2 d<B | G>A B<e d>B e>d | B2 A2 A4 |
